packages/core/src/svgs/tokens/mono/ARI10.svg

<svg width="24" height="24" viewBox="0 0 24 24" fill="none" xmlns="http://www.w3.org/2000/svg">
<path d="M11.144 19.9995C12.7679 20.001 14.3537 19.5081 15.6907 18.5864C17.0278 17.6648 18.0527 16.3581 18.6292 14.8399C19.1206 14.7828 19.5776 14.6171 19.9776 14.3657C19.5242 16.061 18.5924 17.5901 17.2934 18.7702C15.9944 19.9502 14.3833 20.7315 12.6524 21.0207C10.9215 21.3098 9.14384 21.0948 7.53184 20.401C5.91983 19.7073 4.54158 18.5642 3.56163 17.1084C3.51748 17.0388 3.48973 16.9602 3.48048 16.8783C3.47124 16.7964 3.48073 16.7136 3.50826 16.6359C3.53579 16.5583 3.58063 16.4879 3.63937 16.4302C3.69812 16.3725 3.76923 16.3289 3.84733 16.3027L3.85876 16.297C4.11589 16.2055 4.39587 16.3085 4.55014 16.5255C5.28402 17.597 6.26807 18.4734 7.41706 19.0787C8.56602 19.6841 9.84526 20.0002 11.144 19.9995ZM3.88733 7.39474C4.15589 7.57758 4.51586 7.5033 4.71013 7.24047C5.53235 6.13003 6.62819 5.25148 7.89086 4.69043C9.15358 4.12939 10.54 3.90497 11.9152 4.03904C13.2905 4.1731 14.6075 4.66109 15.738 5.45545C16.8685 6.24981 17.774 7.32346 18.3663 8.5718C18.8749 8.58895 19.3434 8.71465 19.7606 8.93748C19.2031 7.36779 18.2276 5.98018 16.939 4.92456C15.6506 3.86893 14.0982 3.18539 12.4495 2.94776C10.8008 2.71013 9.11851 2.92745 7.58434 3.57626C6.05018 4.22505 4.72242 5.28066 3.74449 6.62909C3.70254 6.68838 3.67292 6.75548 3.65739 6.82643C3.64184 6.89737 3.64071 6.97072 3.65403 7.04211C3.66735 7.11351 3.69485 7.1815 3.73493 7.24208C3.77501 7.30265 3.82683 7.35456 3.88733 7.39474Z" fill="white"/>
<path d="M2.51578 13.7144C2.53744 13.7162 2.55915 13.7118 2.57838 13.7017C2.5976 13.6916 2.61355 13.6761 2.62435 13.6573L4.18424 10.6861C4.22424 10.6003 4.34994 10.6003 4.38993 10.6861L5.94982 13.6573C5.97269 13.6916 6.00697 13.7144 6.05839 13.7144H6.45836C6.54408 13.7144 6.60121 13.6231 6.56121 13.5431L4.57849 9.77186C4.56815 9.75386 4.55311 9.73906 4.53499 9.72906C4.51687 9.71893 4.49635 9.71399 4.47565 9.71466H4.09853C4.07781 9.71399 4.0573 9.71893 4.03918 9.72906C4.02107 9.73906 4.00603 9.75386 3.99568 9.77186L2.01297 13.5431C1.97297 13.6231 2.0301 13.7144 2.12152 13.7144H2.52149H2.51578ZM9.42961 9.71466H7.25831C7.228 9.71466 7.19894 9.72679 7.1775 9.74812C7.15607 9.76959 7.14403 9.79865 7.14403 9.82905V13.6001C7.14403 13.6631 7.19546 13.7144 7.25831 13.7144H7.60114C7.664 13.7144 7.71542 13.6631 7.71542 13.6001V10.2861H9.42961C9.70959 10.2861 10.001 10.6175 10.001 10.8575C10.001 11.2403 9.80665 11.4289 9.42961 11.4289H8.65246C8.6222 11.4289 8.59313 11.4409 8.57167 11.4624C8.5502 11.4837 8.5382 11.5128 8.5382 11.5432V11.9602C8.5382 11.9832 8.54967 12.0117 8.56674 12.0345L9.91531 13.6744C9.93811 13.6973 9.96664 13.7144 10.001 13.7144H10.4581C10.5553 13.7144 10.6066 13.6001 10.5495 13.5316L9.36108 12.0002C10.0353 12.0002 10.5723 11.5489 10.5723 10.8575C10.5723 10.2576 10.001 9.71466 9.42961 9.71466ZM11.8294 13.7144C11.799 13.7144 11.77 13.7024 11.7486 13.6809C11.7272 13.6596 11.7152 13.6305 11.7152 13.6001V9.82905C11.7152 9.76612 11.7665 9.71466 11.8294 9.71466H12.1722C12.2351 9.71466 12.2865 9.76612 12.2865 9.82905V13.6001C12.2865 13.6305 12.2745 13.6596 12.253 13.6809C12.2317 13.7024 12.2026 13.7144 12.1722 13.7144H11.8294Z" fill="white"/>
<path fill-rule="evenodd" clip-rule="evenodd" d="M18.286 13.143C18.6649 13.143 19.0282 12.9925 19.2962 12.7247C19.564 12.4567 19.7146 12.0934 19.7146 11.7145C19.7146 11.3357 19.564 10.9724 19.2962 10.7044C19.0282 10.4365 18.6649 10.286 18.286 10.286C17.9072 10.286 17.5439 10.4365 17.2759 10.7044C17.0081 10.9724 16.8576 11.3357 16.8576 11.7145C16.8576 12.0934 17.0081 12.4567 17.2759 12.7247C17.5439 12.9925 17.9072 13.143 18.286 13.143ZM18.286 13.7143C18.5486 13.7143 18.8088 13.6626 19.0514 13.5622C19.2941 13.4617 19.5144 13.3143 19.7002 13.1286C19.8859 12.9429 20.0332 12.7225 20.1337 12.4799C20.2341 12.2372 20.2859 11.9771 20.2859 11.7145C20.2859 11.4519 20.2341 11.1918 20.1337 10.9492C20.0332 10.7065 19.8859 10.4861 19.7002 10.3004C19.5144 10.1147 19.2941 9.96738 19.0514 9.86686C18.8088 9.76633 18.5486 9.7146 18.286 9.7146C17.7556 9.7146 17.247 9.92538 16.872 10.3004C16.4969 10.6755 16.2861 11.1841 16.2861 11.7145C16.2861 12.245 16.4969 12.7536 16.872 13.1286C17.247 13.5037 17.7556 13.7143 18.286 13.7143Z" fill="white"/>
<path d="M15.1432 9.7146L14.0005 10.286V10.8575L14.5718 10.5717V13.7143H15.1432V9.7146Z" fill="white"/>
<path fill-rule="evenodd" clip-rule="evenodd" d="M21.1257 10.8578C20.9571 10.8545 20.7931 10.8013 20.6544 10.705C20.5157 10.6089 20.4086 10.4738 20.3463 10.3171C20.2841 10.1601 20.2695 9.98841 20.3045 9.82322C20.3394 9.65817 20.4225 9.50698 20.543 9.38885C20.6634 9.27072 20.8162 9.19076 20.9819 9.15906C21.1477 9.12735 21.3192 9.1453 21.4748 9.21064C21.6304 9.27598 21.7633 9.38579 21.8566 9.52631C21.9501 9.66697 21.9999 9.83189 22.0001 10.0007C22.0001 10.4749 21.2972 11.1035 20.9715 11.5206L20.743 11.3378L21.1257 10.8578ZM21.1429 10.5721C21.0299 10.5721 20.9195 10.5386 20.8255 10.4758C20.7315 10.413 20.6583 10.3237 20.615 10.2193C20.5718 10.1149 20.5604 10.0001 20.5826 9.88922C20.6046 9.77843 20.659 9.67657 20.739 9.59671C20.8188 9.51671 20.9207 9.46232 21.0315 9.44032C21.1423 9.41832 21.2572 9.42952 21.3616 9.47285C21.466 9.51605 21.5552 9.58924 21.618 9.68323C21.6808 9.77723 21.7144 9.88775 21.7144 10.0007C21.7144 10.2864 21.4344 10.5721 21.1429 10.5721Z" fill="white"/>
</svg>

<svg xmlns="http://www.w3.org/2000/svg" width="24" height="24" fill="none" viewBox="0 0 24 24">
    <path fill="#fff" d="M11.144 20a8 8 0 0 0 7.485-5.16 3.2 3.2 0 0 0 1.349-.474 9.142 9.142 0 0 1-16.416 2.742.543.543 0 0 1 .285-.805l.012-.006a.604.604 0 0 1 .691.229A7.99 7.99 0 0 0 11.144 20M3.887 7.395a.6.6 0 0 0 .823-.155 8 8 0 0 1 13.656 1.332c.509.017.977.143 1.395.365A9.143 9.143 0 0 0 3.744 6.63a.54.54 0 0 0 .143.766m-1.371 6.318a.11.11 0 0 0 .108-.057l1.56-2.97a.114.114 0 0 1 .206 0l1.56 2.97a.12.12 0 0 0 .108.057h.4a.117.117 0 0 0 .103-.17L4.578 9.771a.11.11 0 0 0-.102-.057h-.377a.11.11 0 0 0-.103.057l-1.983 3.771c-.04.08.017.171.109.171h.4zm6.914-4H7.258a.115.115 0 0 0-.114.115V13.6c0 .063.051.114.114.114h.343a.115.115 0 0 0 .114-.114v-3.314H9.43c.28 0 .571.332.571.572 0 .382-.194.57-.571.57h-.778a.114.114 0 0 0-.114.115v.417c0 .023.012.052.029.074l1.348 1.64c.023.023.052.04.086.04h.457c.097 0 .149-.114.091-.182L9.362 12c.674 0 1.211-.451 1.211-1.142 0-.6-.571-1.143-1.142-1.143m2.4 4a.114.114 0 0 1-.115-.114V9.83c0-.064.052-.115.114-.115h.343c.063 0 .114.051.114.114V13.6a.114.114 0 0 1-.114.114z"/>
    <path fill="#fff" fill-rule="evenodd" d="M18.286 13.143a1.43 1.43 0 1 0 0-2.858 1.43 1.43 0 0 0 0 2.858m0 .571a2 2 0 0 0 2-2 2 2 0 0 0-2-2 2 2 0 0 0 0 4" clip-rule="evenodd"/>
    <path fill="#fff" d="m15.143 9.715-1.142.571v.572l.57-.286v3.142h.572z"/>
    <path fill="#fff" fill-rule="evenodd" d="M21.126 10.858A.856.856 0 1 1 22 10c0 .474-.703 1.103-1.029 1.52l-.228-.183zm.017-.286a.571.571 0 1 1 .571-.571c0 .285-.28.571-.571.571" clip-rule="evenodd"/>
</svg>
